src/components/common/images/img_button_icon.svg

<svg width="24" height="24" viewBox="0 0 24 24" fill="none" xmlns="http://www.w3.org/2000/svg">
<path d="M12 17C12.5523 17 13 16.5523 13 16V12C13 11.4477 12.5523 11 12 11C11.4477 11 11 11.4477 11 12V16C11 16.5523 11.4477 17 12 17Z" fill="black"/>
<path d="M12 6.5C11.1716 6.5 10.5 7.17157 10.5 8C10.5 8.82843 11.1716 9.5 12 9.5H12.01C12.8384 9.5 13.51 8.82843 13.51 8C13.51 7.17157 12.8384 6.5 12.01 6.5H12Z" fill="black"/>
<path fill-rule="evenodd" clip-rule="evenodd" d="M1 12C1 5.92487 5.92487 1 12 1C18.0751 1 23 5.92487 23 12C23 18.0751 18.0751 23 12 23C5.92487 23 1 18.0751 1 12ZM12 3C7.02944 3 3 7.02944 3 12C3 16.9706 7.02944 21 12 21C16.9706 21 21 16.9706 21 12C21 7.02944 16.9706 3 12 3Z" fill="black"/>
</svg>

<svg width="24" height="24" fill="none" xmlns="http://www.w3.org/2000/svg"><path d="M12 17a1 1 0 0 0 1-1v-4a1 1 0 1 0-2 0v4a1 1 0 0 0 1 1zM12 6.5a1.5 1.5 0 0 0 0 3h.01a1.5 1.5 0 0 0 0-3H12z" fill="#000"/><path fill-rule="evenodd" clip-rule="evenodd" d="M1 12C1 5.925 5.925 1 12 1s11 4.925 11 11-4.925 11-11 11S1 18.075 1 12zm11-9a9 9 0 1 0 0 18 9 9 0 0 0 0-18z" fill="#000"/></svg>
